packages/icons/src/security-ci-step.svg

<svg fill="none" viewBox="0 0 40 41" xmlns="http://www.w3.org/2000/svg"><path clip-rule="evenodd" d="m14.0806 11.8429.001 4.5458h11.8387l-.0009-4.5457c0-3.24159-2.647-5.87539-5.9194-5.87539s-5.9193 2.63374-5.9194 5.87529zm12.8397 4.5458h4.0797c.5523 0 1 .4478 1 1v18.5789c0 .5523-.4477 1-1 1h-22c-.55228 0-1-.4477-1-1v-18.5789c0-.5522.44772-1 1-1h4.0816l-.001-4.5457c0-3.80036 3.1012-6.87539 6.9194-6.87539s6.9193 3.07487 6.9194 6.87519zm-17.9203 1v18.5789h22v-18.5789zm11.0007 4.2571c-1.227 0-2.2158.9869-2.2158 2.1972 0 .6552.2886 1.2437.7496 1.6474.2851.2497.5372.632.5372 1.1007v3.8689c0 .1711.1406.3158.3214.3158h1.2152c.1808 0 .3214-.1447.3214-.3158v-3.8689c0-.4687.2521-.851.5372-1.1007.461-.4037.7497-.9922.7497-1.6474 0-1.2103-.9889-2.1972-2.2159-2.1972zm-3.2158 2.1972c0-1.769 1.443-3.1972 3.2158-3.1972s3.2159 1.4282 3.2159 3.1972c0 .9567-.4232 1.815-1.0908 2.3997-.1413.1238-.1961.2525-.1961.3484v3.8689c0 .7299-.5948 1.3158-1.3214 1.3158h-1.2152c-.7265 0-1.3214-.5859-1.3214-1.3158v-3.8689c0-.0959-.0547-.2246-.1961-.3484-.6675-.5847-1.0907-1.443-1.0907-2.3997z" fill="#4f5162" fill-rule="evenodd"/></svg>

<svg viewBox="0 0 40 41" fill="none" xmlns="http://www.w3.org/2000/svg">
<path fill-rule="evenodd" clip-rule="evenodd" d="M14.0806 11.8429C14.0806 11.8429 14.0806 11.8429 14.0806 11.8429L14.0816 16.3887H25.9203L25.9194 11.843C25.9194 8.60141 23.2724 5.96761 20 5.96761C16.7276 5.96761 14.0807 8.60135 14.0806 11.8429ZM26.9203 16.3887H31C31.5523 16.3887 32 16.8365 32 17.3887V35.9676C32 36.5199 31.5523 36.9676 31 36.9676H9C8.44772 36.9676 8 36.5199 8 35.9676V17.3887C8 16.8365 8.44772 16.3887 9 16.3887H13.0816L13.0806 11.843C13.0806 8.04264 16.1818 4.96761 20 4.96761C23.8182 4.96761 26.9193 8.04248 26.9194 11.8428C26.9194 11.8428 26.9194 11.8428 26.9194 11.8428L26.9203 16.3887ZM9 17.3887V35.9676H31V17.3887H9ZM20.0007 21.6458C18.7737 21.6458 17.7849 22.6327 17.7849 23.843C17.7849 24.4982 18.0735 25.0867 18.5345 25.4904C18.8196 25.7401 19.0717 26.1224 19.0717 26.5911V30.46C19.0717 30.6311 19.2123 30.7758 19.3931 30.7758H20.6083C20.7891 30.7758 20.9297 30.6311 20.9297 30.46V26.5911C20.9297 26.1224 21.1818 25.7401 21.4669 25.4904C21.9279 25.0867 22.2166 24.4982 22.2166 23.843C22.2166 22.6327 21.2277 21.6458 20.0007 21.6458ZM16.7849 23.843C16.7849 22.074 18.2279 20.6458 20.0007 20.6458C21.7735 20.6458 23.2166 22.074 23.2166 23.843C23.2166 24.7997 22.7934 25.658 22.1258 26.2427C21.9845 26.3665 21.9297 26.4952 21.9297 26.5911V30.46C21.9297 31.1899 21.3349 31.7758 20.6083 31.7758H19.3931C18.6666 31.7758 18.0717 31.1899 18.0717 30.46V26.5911C18.0717 26.4952 18.017 26.3665 17.8756 26.2427C17.2081 25.658 16.7849 24.7997 16.7849 23.843Z" fill="#4F5162"/>
</svg>
